!!!COM: Henri Duparc
!!!CNT: Francais
!!!TXO: Francais
!!!OTL: Soupir
!!!LYR: Rene/~Franc5ois Sully~Prudhomme
!!!ENC: Jacob Pegg
!!!YOR: Henri Duparc: Complete Songs for Voice and Piano
!!!YOR: New York: Dover publications, inc., 1995 
!!!YOR: ISBN 0-486-28466-2
!!!ODT: 1869/
!!NB: Vocal melody and text only encoded.
**kern	**silbe
*clef G2	*
*k[b-]	*
*M3/4	*
*MM[lento]	*
!! created: 6/25/03 15:28
!! last edited: 7/21/03 23:04
=4	=4
{8ee-	{Ne
8ee-	ja-
4.ee-	-mais
8dd	la
=5	=5
2cc#	voir
8dd	ni
8dd	l'en-
=6	=6
2a	-ten-
8a}	-dre,}
8r	.
=7	=7
{8gg	{Ne
8gg	ja-
4.gg	-mais
8ff	tout
=8	=8
2ee	haut
8cc#	la
8dd	nom-
=9	=9
4a}	-mer,}
{4.dd	{Mais,
8b-	fi-
=10	=10
4a	-de\-
8a}	-le,}
{8a	{tou-
8bn	-jours
8bn	l'at-
=11	=11
4e	-ten-
8e}	-dre,}
{8e	{tou-
8a	-jours
8a	l'ai-
=12	=12
2a}	-mer.}
4r	.
=13	=13
2.r	.
=14	=14
8r	.
{8a	{Ou-
8a	-vrir
8a	les
4b-	bras,
=15	=15
4a	et,
8a	las
8a	d'at-
8b-	-ten-
8b-}	-dre,}
=16	=16
8r	.
{8b-	{Sur
8b-	le
8b-	ne/-
8ee-	-ant
8ee-	les
=17	=17
8ee-	re-
8dd-	-fer-
4dd-}	-mer,}
4r	.
=18	=18
{8ff	{Mais
8ff	en-
4.ff}	-cor,}
{8ff	{tou-
=19	=19
4aa-	-jours
4.ff	les
8cc	lui
=20	=20
4cc	ten-
4b-}	-dre,}
4r	.
=21	=21
4r	.
8r	.
{8g	{Tou-
8cc	-jours
8cc	l'ai-
=22	=22
2cc}	-mer.}
4r	.
=23	=23
2.r	.
=24	=24
{4ff	{Ah!
8ff	ne
8ff	pou-
[4gg-	-voir
=25	=25
8gg-]	|
8ff	que
8cc	les
8cc	lui
8dd-	ten-
8dd-}	-dre,}
=26	=26
4r	.
{4cc	{Et
8cc	dans
8dd	les
=27	=27
4.ee-	pleurs
8ee-	se
8dd	con-
8dd	-su-
=28	=28
[4ee-	-mer,
8ee-]}	|}
8r	.
4r	.
=29	=29
2.r	.
=30	=30
4r	.
4r	.
{8g	{Mais
8g	ces
=31	=31
2g}	pleurs}
8r	.
{8g	{tou-
=32	=32
2g	-jours
8g	les
8g	re/-
=33	=33
8g	-pan-
8g}	-dre,}
4r	.
4r	.
=34	=34
4r	.
4r	.
8r	.
{8cc#	{Tou-
=35	=35
8cc#	-jours
8cc#	l'ai-
2cc#}	-mer...}
=36	=36
4r	.
4r	.
4r	.
=37	=37
2.r;	.
=38	=38
{8ee	{Ne
8ee	ja-
4.ee	-mais
8dd	la
=39	=39
2cc#	voir
8dd	ni
8dd	l'en-
=40	=40
2a	-ten-
8a}	-dre,}
8r	,
=41	=41
{8gg	{Ne
8gg	ja-
4.gg	-mais
8ff	tout
=42	=42
2ee	haut
8cc#	la
8dd	nom-
=43	=43
4a}	-mer,}
{4dd	{Mais
8dd	d'un
8b-	a-
=44	=44
4.a	-mour
8a	tou-
8bn	-jours
8bn	plus
=45	=45
4e	ten-
8e}	-dre}
{8e	{tou-
8a	-jours
8a	l'ai-
=46	=46
2a}	-mer.}
4r	.
=47	=47
2.r	.
=48	=48
4r	.
{4a	{tou-
[4a	-jours!
=49	=49
2a]}	|}
4r	.
*-	*-
